Numix/16/status/indicator-keyboard-Cr-2.svg

<?xml version="1.0" encoding="UTF-8" standalone="no"?>
<svg
   xmlns:dc="http://purl.org/dc/elements/1.1/"
   xmlns:cc="http://creativecommons.org/ns#"
   xmlns:rdf="http://www.w3.org/1999/02/22-rdf-syntax-ns#"
   xmlns:svg="http://www.w3.org/2000/svg"
   xmlns="http://www.w3.org/2000/svg"
   xmlns:sodipodi="http://sodipodi.sourceforge.net/DTD/sodipodi-0.dtd"
   xmlns:inkscape="http://www.inkscape.org/namespaces/inkscape"
   viewBox="0 0 16 16"
   id="svg2"
   version="1.1"
   inkscape:version="0.91 r13725"
   sodipodi:docname="indicator-keyboard-Cr-2.svg">
  <metadata
     id="metadata14">
    <rdf:RDF>
      <cc:Work
         rdf:about="">
        <dc:format>image/svg+xml</dc:format>
        <dc:type
           rdf:resource="http://purl.org/dc/dcmitype/StillImage" />
      </cc:Work>
    </rdf:RDF>
  </metadata>
  <defs
     id="defs12" />
  <sodipodi:namedview
     pagecolor="#ffffff"
     bordercolor="#666666"
     borderopacity="1"
     objecttolerance="10"
     gridtolerance="10"
     guidetolerance="10"
     inkscape:pageopacity="0"
     inkscape:pageshadow="2"
     inkscape:window-width="459"
     inkscape:window-height="369"
     id="namedview10"
     showgrid="false"
     inkscape:zoom="14.75"
     inkscape:cx="8"
     inkscape:cy="8"
     inkscape:window-x="75"
     inkscape:window-y="34"
     inkscape:window-maximized="0"
     inkscape:current-layer="svg2" />
  <path
     style="fill:#ececec;fill-opacity:1"
     d="M 1.5996094 0 C 0.71320937 2.9605947e-16 0 0.71320937 0 1.5996094 L 0 14.400391 C 2.9605947e-16 15.286791 0.71320937 16 1.5996094 16 L 14.400391 16 C 15.286791 16 16 15.286791 16 14.400391 L 16 1.5996094 C 16 0.71320937 15.286791 0 14.400391 0 L 1.5996094 0 z M 5.3339844 4.7246094 C 5.5679844 4.7246094 5.7806562 4.7395312 5.9726562 4.7695312 C 6.1646563 4.7995313 6.3325625 4.8387187 6.4765625 4.8867188 C 6.6205625 4.9287188 6.7437031 4.9734844 6.8457031 5.0214844 C 6.9477031 5.0634844 7.0260781 5.1026719 7.0800781 5.1386719 L 6.8828125 5.6699219 C 6.7328125 5.5799219 6.5406406 5.4922031 6.3066406 5.4082031 C 6.0786406 5.3182031 5.7931719 5.2734375 5.4511719 5.2734375 C 5.0611719 5.2734375 4.7197812 5.3387031 4.4257812 5.4707031 C 4.1377813 5.6027031 3.8933125 5.7892969 3.6953125 6.0292969 C 3.4973125 6.2692969 3.3480938 6.5547656 3.2460938 6.8847656 C 3.1500937 7.2147656 3.1015625 7.5804219 3.1015625 7.9824219 C 3.1015625 8.3964219 3.1500937 8.7714219 3.2460938 9.1074219 C 3.3480937 9.4374219 3.4955 9.719125 3.6875 9.953125 C 3.8795 10.187125 4.1126719 10.366188 4.3886719 10.492188 C 4.6706719 10.618187 4.9915625 10.681641 5.3515625 10.681641 C 5.7475625 10.681641 6.0777969 10.646219 6.3417969 10.574219 C 6.6117969 10.496219 6.815125 10.417844 6.953125 10.339844 L 7.125 10.861328 C 7.083 10.891328 7.0102031 10.928703 6.9082031 10.970703 C 6.8062031 11.006703 6.6774844 11.045891 6.5214844 11.087891 C 6.3654844 11.129891 6.1864219 11.161547 5.9824219 11.185547 C 5.7784219 11.215547 5.5508281 11.230469 5.2988281 11.230469 C 4.8968281 11.230469 4.5218281 11.159625 4.1738281 11.015625 C 3.8318281 10.871625 3.5314375 10.660766 3.2734375 10.384766 C 3.0214375 10.108765 2.8199219 9.7691875 2.6699219 9.3671875 C 2.5259219 8.9591875 2.453125 8.4946562 2.453125 7.9726562 C 2.453125 7.4506563 2.5315 6.9898906 2.6875 6.5878906 C 2.8495 6.1798906 3.0621719 5.8365469 3.3261719 5.5605469 C 3.5901719 5.2845469 3.8961406 5.0774531 4.2441406 4.9394531 C 4.5921406 4.7954531 4.9559844 4.7246094 5.3339844 4.7246094 z M 9.7382812 6.3535156 C 9.9302816 6.3535156 10.111297 6.3684375 10.279297 6.3984375 C 10.453297 6.4284375 10.572672 6.4582812 10.638672 6.4882812 L 10.521484 6.9921875 C 10.473484 6.9681875 10.374609 6.9439219 10.224609 6.9199219 C 10.080609 6.8899219 9.8884378 6.875 9.6484375 6.875 C 9.3964375 6.875 9.1931094 6.8936875 9.0371094 6.9296875 C 8.8871094 6.9656875 8.7882344 6.9955312 8.7402344 7.0195312 L 8.7402344 11.095703 L 8.1542969 11.095703 L 8.1542969 6.6582031 C 8.3042969 6.5922031 8.5113906 6.5269375 8.7753906 6.4609375 C 9.0393906 6.3889375 9.3602813 6.3535156 9.7382812 6.3535156 z M 12.21875 8.7539062 C 12.61265 8.7539062 12.908522 8.851875 13.107422 9.046875 C 13.306322 9.237975 13.40625 9.5044563 13.40625 9.8476562 C 13.40625 9.9997563 13.378819 10.14475 13.324219 10.28125 C 13.269619 10.41385 13.195163 10.543169 13.101562 10.667969 C 13.011862 10.792769 12.908016 10.912297 12.791016 11.029297 C 12.674016 11.146297 12.554494 11.263859 12.433594 11.380859 C 12.332194 11.478359 12.234219 11.578288 12.136719 11.679688 C 12.043119 11.777187 11.956906 11.877116 11.878906 11.978516 C 11.804806 12.076016 11.744066 12.172031 11.697266 12.269531 C 11.654366 12.363131 11.632812 12.457181 11.632812 12.550781 L 11.632812 12.5625 L 13.544922 12.5625 L 13.544922 12.896484 L 11.210938 12.896484 C 11.210938 12.888684 11.209011 12.874969 11.205078 12.855469 L 11.205078 12.755859 C 11.205078 12.572559 11.238387 12.402094 11.304688 12.246094 C 11.370988 12.086194 11.455241 11.937275 11.556641 11.796875 C 11.661941 11.656475 11.777544 11.525197 11.902344 11.404297 C 12.031044 11.283397 12.154484 11.165834 12.271484 11.052734 C 12.368984 10.959134 12.459122 10.869003 12.544922 10.783203 C 12.634622 10.693503 12.712997 10.603366 12.779297 10.509766 C 12.845597 10.416166 12.8985 10.316237 12.9375 10.210938 C 12.9765 10.105638 12.996094 9.9900344 12.996094 9.8652344 C 12.996094 9.5922344 12.921638 9.39825 12.773438 9.28125 C 12.629137 9.16035 12.446909 9.0996094 12.224609 9.0996094 C 12.099809 9.0996094 11.988125 9.1152844 11.890625 9.1464844 C 11.793125 9.1776844 11.706912 9.2149125 11.632812 9.2578125 C 11.562612 9.2968125 11.501872 9.3379594 11.451172 9.3808594 C 11.400472 9.4237594 11.363244 9.4570688 11.339844 9.4804688 L 11.140625 9.2167969 C 11.164025 9.1894969 11.205172 9.1503094 11.263672 9.0996094 C 11.326072 9.0450094 11.402487 8.9921062 11.492188 8.9414062 C 11.585788 8.8907063 11.693553 8.8476 11.814453 8.8125 C 11.935353 8.7735 12.07055 8.7539063 12.21875 8.7539062 z "
     id="path4" />
</svg>

<svg xmlns="http://www.w3.org/2000/svg" viewBox="0 0 16 16">
 <path d="m 1.6 0 c -0.886 0 -1.6 0.713 -1.6 1.6 l 0 12.801 c 0 0.886 0.713 1.6 1.6 1.6 l 12.801 0 c 0.886 0 1.6 -0.713 1.6 -1.6 l 0 -12.801 c 0 -0.886 -0.713 -1.6 -1.6 -1.6 l -12.801 0 z m 3.734 4.725 c 0.234 0 0.447 0.015 0.639 0.045 c 0.192 0.03 0.36 0.069 0.504 0.117 c 0.144 0.042 0.267 0.087 0.369 0.135 c 0.102 0.042 0.18 0.081 0.234 0.117 l -0.197 0.531 c -0.15 -0.09 -0.342 -0.178 -0.576 -0.262 c -0.228 -0.09 -0.513 -0.135 -0.855 -0.135 c -0.39 0 -0.731 0.065 -1.025 0.197 c -0.288 0.132 -0.532 0.319 -0.73 0.559 c -0.198 0.24 -0.347 0.525 -0.449 0.855 c -0.096 0.33 -0.145 0.696 -0.145 1.098 c 0 0.414 0.049 0.789 0.145 1.125 c 0.102 0.33 0.249 0.612 0.441 0.846 c 0.192 0.234 0.425 0.413 0.701 0.539 c 0.282 0.126 0.603 0.189 0.963 0.189 c 0.396 0 0.726 -0.035 0.99 -0.107 c 0.27 -0.078 0.473 -0.156 0.611 -0.234 l 0.172 0.521 c -0.042 0.03 -0.115 0.067 -0.217 0.109 c -0.102 0.036 -0.231 0.075 -0.387 0.117 c -0.156 0.042 -0.335 0.074 -0.539 0.098 c -0.204 0.03 -0.432 0.045 -0.684 0.045 c -0.402 0 -0.777 -0.071 -1.125 -0.215 c -0.342 -0.144 -0.642 -0.355 -0.9 -0.631 c -0.252 -0.276 -0.454 -0.616 -0.604 -1.018 c -0.144 -0.408 -0.217 -0.873 -0.217 -1.395 c 0 -0.522 0.078 -0.983 0.234 -1.385 c 0.162 -0.408 0.375 -0.751 0.639 -1.027 c 0.264 -0.276 0.57 -0.483 0.918 -0.621 c 0.348 -0.144 0.712 -0.215 1.09 -0.215 z m 4.404 1.629 c 0.192 0 0.373 0.015 0.541 0.045 c 0.174 0.03 0.293 0.06 0.359 0.09 l -0.117 0.504 c -0.048 -0.024 -0.147 -0.048 -0.297 -0.072 c -0.144 -0.03 -0.336 -0.045 -0.576 -0.045 c -0.252 0 -0.455 0.019 -0.611 0.055 c -0.15 0.036 -0.249 0.066 -0.297 0.09 l 0 4.076 l -0.586 0 l 0 -4.437 c 0.15 -0.066 0.357 -0.131 0.621 -0.197 c 0.264 -0.072 0.585 -0.107 0.963 -0.107 z m 2.48 2.4 c 0.394 0 0.69 0.098 0.889 0.293 c 0.199 0.191 0.299 0.458 0.299 0.801 c 0 0.152 -0.027 0.297 -0.082 0.434 c -0.055 0.133 -0.129 0.262 -0.223 0.387 c -0.09 0.125 -0.194 0.244 -0.311 0.361 c -0.117 0.117 -0.237 0.235 -0.357 0.352 c -0.101 0.098 -0.199 0.197 -0.297 0.299 c -0.094 0.097 -0.18 0.197 -0.258 0.299 c -0.074 0.097 -0.135 0.194 -0.182 0.291 c -0.043 0.094 -0.064 0.188 -0.064 0.281 l 0 0.012 l 1.912 0 l 0 0.334 l -2.334 0 c 0 -0.008 -0.002 -0.022 -0.006 -0.041 l 0 -0.1 c 0 -0.183 0.033 -0.354 0.1 -0.51 c 0.066 -0.16 0.151 -0.309 0.252 -0.449 c 0.105 -0.14 0.221 -0.272 0.346 -0.393 c 0.129 -0.121 0.252 -0.238 0.369 -0.352 c 0.098 -0.094 0.188 -0.184 0.273 -0.27 c 0.09 -0.09 0.168 -0.18 0.234 -0.273 c 0.066 -0.094 0.119 -0.194 0.158 -0.299 c 0.039 -0.105 0.059 -0.221 0.059 -0.346 c 0 -0.273 -0.074 -0.467 -0.223 -0.584 c -0.144 -0.121 -0.327 -0.182 -0.549 -0.182 c -0.125 0 -0.236 0.016 -0.334 0.047 c -0.098 0.031 -0.184 0.068 -0.258 0.111 c -0.07 0.039 -0.131 0.08 -0.182 0.123 c -0.051 0.043 -0.088 0.076 -0.111 0.1 l -0.199 -0.264 c 0.023 -0.027 0.065 -0.066 0.123 -0.117 c 0.062 -0.055 0.139 -0.108 0.229 -0.158 c 0.094 -0.051 0.201 -0.094 0.322 -0.129 c 0.121 -0.039 0.256 -0.059 0.404 -0.059 z" style="fill:#ececec;fill-opacity:1"/>
</svg>
